usr/share/icons/biglinux-icons-material-dark/16/actions/align-horizontal-right-out.svg

<svg xmlns="http://www.w3.org/2000/svg" viewBox="0 0 16 16">
<defs id="defs3051">
<style id="current-color-scheme" type="text/css">
.ColorScheme-Text{color:#dedede}
</style>
</defs>
<path d="M2 2v5h7V2zm8 0v12h1V2zM3 3h5v3H3zm1 6v5h5V9zm8 0v5h2V9zm-7 1h3v3H5z" class="ColorScheme-Text" style="fill:currentColor;fill-opacity:1;stroke:none"/>
</svg>

<svg xmlns="http://www.w3.org/2000/svg" viewBox="0 0 16 16">
  <defs id="defs3051">
    <style type="text/css" id="current-color-scheme">
      .ColorScheme-Text {
        color:#dedede;
      }
      </style>
  </defs>
 <path style="fill:currentColor;fill-opacity:1;stroke:none" 
       d="M 2 2 L 2 7 L 9 7 L 9 2 L 2 2 z M 10 2 L 10 14 L 11 14 L 11 2 L 10 2 z M 3 3 L 8 3 L 8 6 L 3 6 L 3 3 z M 4 9 L 4 14 L 9 14 L 9 9 L 4 9 z M 12 9 L 12 14 L 14 14 L 14 9 L 12 9 z M 5 10 L 8 10 L 8 13 L 5 13 L 5 10 z "
     class="ColorScheme-Text"
     />
</svg>
